X:1
T:Title
%%score { ( 1 4 ) | ( 2 3 ) }
L:1/8
M:4/4
K:G
V:1 treble nm="Grand Piano"
V:4 treble 
V:2 bass 
V:3 bass 
V:1
 z4 z2[Q:1/4=106] D2 | G3 D G2 A2 | B2 A2 B2 [Gc]2 | [DGd]2 .[EGc]2 .[A,GA]2 [CFA]2 |[M:3/4] G6 | %5
[M:1/4] B2 |[M:4/4] A2 A2 G2 G2 | F3 G A2 F2 | E2 FG [DF]2[K:bass] [G,^CE]2 |[M:3/4] [F,D]6 | %10
[M:1/4][K:treble] [Dd]2 |[M:4/4] [DGd]2 .[E^Gc]2 [EAc]2 [=GB]A | [DGB]4 [DFA]2 [^DFB]2 | %13
 [EG]2 [EG]-[EGB] c2 [Ge]2 |[M:3/4] G4 F2 |[M:1/4] D2 |[M:4/4] G3 D [G,DG]2 [DA]2 | %17
 z4 z2 [Ge]2[K:bass] | z2 .[Ec]2 z4 |[M:3/4] [B,DG]6 |] %20
V:2
 z4 z2 D,2 | G,3 D, [B,,G,B,]2 [D,A,D]2 | [G,B,G]2 [D,A,D]2 [G,B,G]2[K:bass] [E,G,]2 | %3
 B,,2 z[K:treble] B[K:bass] z B, D,2 |[M:3/4] [G,B,]6 |[M:1/4] [G,D]2 | %6
[M:4/4] [F,A,D]2 [F,A,D]2 [E,B,D]2 [E,A,^C]2 | [A,D]3- [E,A,D] [F,A,D]2 [D,A,D]2 | %8
 [G,B,D]2 [E,B,D]2 A,2 A,,2 |[M:3/4] D,6 |[M:1/4] D,2 |[M:4/4] B,2 z[K:treble] B A,2 z F | %12
 G,4[K:bass] D,2 B,,2 | B,2 CB, [A,EG]2 [C,A,]2 |[M:3/4] B,4 A,2 |[M:1/4] D,2 | %16
[M:4/4] G,3 D, B,,2 [D,F,]2 | G,2 [E,G,]2 [B,,G,]2 .[C,G,]2 | [D,B,]2 z D D,2 D,2 |[M:3/4] G,6 |] %20
V:3
 x8 | x8 | x6[K:bass] x2 | z2 C,2[K:treble][K:bass] D,2 z2 |[M:3/4] x6 |[M:1/4] x2 |[M:4/4] x8 | %7
 D,4 z4 | x8 |[M:3/4] x6 |[M:1/4] x2 |[M:4/4] z2 E,2[K:treble] z2 [D,D]2 | x4[K:bass] x4 | x8 | %14
[M:3/4] [D,D]6 |[M:1/4] x2 |[M:4/4] x8 | x8 | z2 D,2 z4 |[M:3/4] x6 |] %20
V:4
 x8 | x8 | x8 | x8 |[M:3/4] x6 |[M:1/4] x2 |[M:4/4] x8 | x8 | x6[K:bass] x2 |[M:3/4] x6 | %10
[M:1/4][K:treble] x2 |[M:4/4] x8 | x8 | z2 .A2 z4 |[M:3/4] x6 |[M:1/4] x2 |[M:4/4] x8 | %17
 [DB]2 [Gc]2 [Gd]2 z[K:bass] [^C,A,] | [Gd]2 G-[GB] [CGA]2 [CFA]2 |[M:3/4] x6 |] %20

